svg/archive_check.svg

<svg xmlns="http://www.w3.org/2000/svg" viewBox="0 0 24 24"><path d="M19 13c.34 0 .67.04 1 .09V8H4v13h9.35c-.22-.63-.35-1.3-.35-2 0-3.31 2.69-6 6-6M9 13v-1.5c0-.28.22-.5.5-.5h5c.28 0 .5.22.5.5V13zm12-6H3V3h18zm1.5 10.25L17.75 22 15 19l1.16-1.16 1.59 1.59 3.59-3.59z"/></svg>

<svg xmlns="http://www.w3.org/2000/svg" id="mdi-archive-check" viewBox="0 0 24 24"><path d="M19 13C19.34 13 19.67 13.04 20 13.09V8H4V21H13.35C13.13 20.37 13 19.7 13 19C13 15.69 15.69 13 19 13M9 13V11.5C9 11.22 9.22 11 9.5 11H14.5C14.78 11 15 11.22 15 11.5V13H9M21 7H3V3H21V7M22.5 17.25L17.75 22L15 19L16.16 17.84L17.75 19.43L21.34 15.84L22.5 17.25Z" /></svg>
